X:1
T:Title
%%score { ( 1 3 5 ) | ( 2 4 6 ) }
L:1/8
M:4/4
K:Ab
V:1 treble nm="Grand Piano"
V:3 treble 
V:5 treble 
V:2 bass 
V:4 bass 
V:6 bass 
V:1
 z4 z2 z[Q:1/4=100] [CE] | [CE][CE][DF][DG] [CA] [Ec]2 [Ec] | [Fd]2 [Fd]2 c2 z c | ecdc BAGA | %4
 B6 z E | [CE][CE][DF][DG] [CA] [Ec]2 [Ec] | [Fd]2 [Fd]2 c2 z c | ecBA [DGB][CA] [EAc]>[DGB] | %8
[M:7/8] A-A-A- A3 z |[M:1/8] E |[M:4/4] A A3 c e2 A/B/ | cc[Ac][GB] A4 | %12
 [Gd][Gd][Gd][Ac] [GB]2 EE | cc[Gc][GB] [EA]2 [CE][CE] | %14
[M:35/32] z3/2[Q:1/4=88] z/4[Q:1/4=81] z3/2 z/4 z3 f2- f/4-[Q:1/4=97][Q:1/4=94][Q:1/4=91][Q:1/4=84][Q:1/4=78] | %15
[M:7/8] f3/4 z/4 z z z/ G/-G/4 z/4 z/ z2 |] %16
V:2
 z4 z2 z [A,,A,] | [A,,A,][A,,A,][D,A,][B,,E,] [A,,E,] [A,,A,]2 [A,,A,] | %2
 [D,A,]2 [D,A,]2[K:treble] [A,E]2 z [A,EA] | %3
 [A,CA][A,EA][A,FA][A,EA] [A,DA][K:bass][A,C][B,DE][A,CE] | [E,DE]6 z [E,G,D] | %5
 [A,,A,][A,,A,][D,A,][B,,E,] [A,,E,] [A,,A,]2 [A,,A,] | [D,A,]2 [D,A,]2[K:treble] [A,E]2 z [A,EA] | %7
 [A,CA][A,EA][A,DA][K:bass][A,C] E,E, E,>E, |[M:7/8] [A,C]-[A,C]-[A,C]- [A,C]3 z | %9
[M:1/8][K:treble] [A,C] |[M:4/4] [A,CE] [A,CE]3 [A,EA] [A,CA]2 [A,C]/[A,DA]/ | %11
 [A,EA][A,EA][K:bass][E,E][E,D] [A,C]4 | [E,B,][E,B,][E,B,][E,E] [E,D]2 [E,D][E,D] | %13
 [A,CE][A,EA][K:bass][E,E][E,D] [A,C]2 [A,,A,][A,,A,] | %14
[M:35/32] z3/2 z/4 z3/2 z/4 z3[K:treble][K:bass] [D,D]2- [D,D]/4- | %15
[M:7/8] [D,D]/4 z/4 E/-E-E/4 z/4 z/ z/ D/-D/4 z/4 z/ z2 |] %16
V:3
 x8 | x8 | x8 | x8 | x8 | x8 | x8 | x8 |[M:7/8] x7 |[M:1/8] x |[M:4/4] x8 | x8 | x8 | x8 | %14
[M:35/32] [DF][=EG][FA][GB]cee/ A2- A/4 | %15
[M:7/8] c-<[Ac-][B-c]/<B/- B-[A,-E-A-B]/<[A,EA]/- [A,EA]2 |] %16
V:4
 x8 | x8 | x4[K:treble] x4 | x5[K:bass] x3 | x8 | x8 | x4[K:treble] x4 | x3[K:bass] x5 | %8
[M:7/8] x7 |[M:1/8][K:treble] x |[M:4/4] x8 | x2[K:bass] x6 | x8 | x2[K:bass] x6 | %14
[M:35/32] [D,A,][C,C][F,C][E,E][K:treble][A,EA][A,CA][A,CA]/[K:bass] z2 z/4 |[M:7/8] z z z2 A,,3 |] %16
V:5
 x8 | x8 | x8 | x8 | x8 | x8 | x8 | x8 |[M:7/8] x7 |[M:1/8] x |[M:4/4] x8 | x8 | x8 | x8 | %14
[M:35/32] x35/4 |[M:7/8] .[CA-]/>A/ z [DA]3/2-[DA]/4 z/4 z z2 |] %16
V:6
 x8 | x8 | x4[K:treble] x4 | x5[K:bass] x3 | x8 | x8 | x4[K:treble] x4 | x3[K:bass] x5 | %8
[M:7/8] x7 |[M:1/8][K:treble] x |[M:4/4] x8 | x2[K:bass] x6 | x8 | x2[K:bass] x6 | %14
[M:35/32] x4[K:treble] x5/2[K:bass] x9/4 |[M:7/8] E,2 E,2- E,/4 z/4 z/ z2 |] %16

